img/block-5.svg

<svg width="657" height="185" viewBox="0 0 657 185" fill="none" xmlns="http://www.w3.org/2000/svg">
<path d="M11.5007 150.207L11.5039 36.3747C11.5042 25.2889 20.5252 16.2703 31.6139 16.2701L584.71 16.2581C592.481 16.2579 599.525 20.7578 602.774 27.7981L640.432 109.409C646.353 122.241 637.391 137.062 623.243 137.834L32.486 170.068C21.0666 170.691 11.5004 161.637 11.5007 150.207Z" fill="#FF8D07"/>
<path d="M4.16873 146.565L4.17206 32.7327C4.17239 21.6469 13.1934 12.6283 24.2821 12.6281L577.378 12.6154C585.149 12.6152 592.193 17.1151 595.442 24.1554L633.1 105.766C639.021 118.599 630.059 133.419 615.911 134.191L25.154 166.426C13.7345 167.049 4.16839 157.995 4.16873 146.565Z" stroke="black"/>
</svg>

<svg width="657" height="185" viewBox="0 0 657 185" fill="none" xmlns="http://www.w3.org/2000/svg"><path d="M11.5 150.207l.004-113.832c0-11.086 9.021-20.105 20.11-20.105l553.096-.012c7.771 0 14.815 4.5 18.064 11.54l37.658 81.611c5.921 12.832-3.041 27.653-17.189 28.425L32.486 170.068c-11.42.623-20.986-8.431-20.985-19.861z" fill="#FF8D07"/><path d="M4.169 146.565l.003-113.832c0-11.086 9.021-20.105 20.11-20.105l553.096-.013c7.771 0 14.815 4.5 18.064 11.54l37.658 81.611c5.921 12.833-3.041 27.653-17.189 28.425L25.154 166.426c-11.42.623-20.986-8.431-20.985-19.861z" stroke="#000"/></svg>
